X: 1
T: Brig O' Cally
M: 4/4
L: 1/8
R: barndance
K: Amaj
|: e>d | c2 Ac e2 ce | f<a d>f e2 e>d | cA ce f<a ec | c2 B>c B2 e>d |
c2 Ac e2 ce | f<a d>f e2 e>d | cA cB ce dB | B2 A>B A2 :|
|: ef/g/ | a>e cA e2 ce | f<a d>f e2 e>d | cA ce f<a ec |
[1 c2 B>c B2 ef/g/ | a>e cA e2 ce | f<a d>f e2 e>d | cA cB ce dB | B2 A>B A2 :|
[2 c2 B>c B2 e>d | cA dB ec ce | f<a d>f e2 e>d | cA cB ce dB | B2 A>B A2 ||
